X:718
T:Boys of Ballysodare
O:england
S:Trad, arr. Paddy O'Brien
R:reel
E:9
I:speed 350
M:C|
K:DMix
c2|dG~G2 dGeG|dGGA BAAB|dG~G2 dedB|AcBA GE~D2|\
dG~G2 dGeG|dG~G2 BA~A2|Bd~d2 eBdB|AcBA GED||\
f|gfga bgaf|gfga bgef|~g2dg bgaf|gfed Bdef|\
gfga bgaf|gfga bgeg|bgaf gedB|AcBA GE D2||\
Bd~d2 Bdgd |Bdgd BAAc|Bd~d2 eBdB|AcBA GE~D2|\
Bd~d2 Bdgd|Bdgd BABd|eB~B2 eBdB|AcBA GED2||
